files/icons/github.svg

<svg width="43" height="42" viewBox="0 0 43 42" fill="none" xmlns="http://www.w3.org/2000/svg">
<path d="M21.7627 0.00141655C10.0314 0.00141655 0.521179 9.51167 0.521179 21.243C0.521179 30.5705 6.53414 38.4957 14.8956 41.3499L15.0458 41.3938C16.1081 41.5935 16.4977 40.9377 16.4977 40.3725C16.4977 39.8682 16.4807 38.5311 16.4707 36.7619C10.5626 38.0438 9.3161 33.9119 9.3161 33.9119C8.90816 32.6017 8.07243 31.5252 6.97466 30.8184L6.952 30.8056C5.02842 29.4883 7.10073 29.5152 7.10073 29.5152C8.4988 29.7121 9.67022 30.5322 10.3431 31.6824L10.3544 31.7037C11.1391 33.1131 12.6208 34.0508 14.3219 34.0508C15.1378 34.0508 15.9027 33.8355 16.5628 33.4573L16.5402 33.4686C16.6421 32.3482 17.1365 31.3594 17.8844 30.6285L17.8858 30.6271C13.1689 30.096 8.20983 28.2687 8.20983 20.131C8.20983 20.0928 8.20842 20.0489 8.20842 20.0049C8.20842 17.8505 9.03989 15.8901 10.3997 14.4268L10.3955 14.4325C10.1079 13.6648 9.94077 12.7781 9.94077 11.8531C9.94077 10.7525 10.1759 9.70572 10.5994 8.76235L10.5796 8.8105C10.5796 8.8105 12.3587 8.24108 16.4212 10.9876C18.0133 10.5329 19.842 10.2709 21.7316 10.2709C23.6211 10.2709 25.4498 10.5329 27.1836 11.0216L27.0419 10.9876C31.0775 8.24108 32.8566 8.8105 32.8566 8.8105C33.2603 9.71988 33.4954 10.7794 33.4954 11.8942C33.4954 12.8036 33.3396 13.6761 33.0521 14.4863L33.0691 14.4325C34.419 15.8943 35.2476 17.8547 35.2476 20.0092C35.2476 20.0531 35.2476 20.0956 35.2462 20.1381V20.131C35.2462 28.2914 30.2814 30.0875 25.5546 30.6101C26.4498 31.5266 27.0023 32.7802 27.0023 34.1641C27.0023 34.2958 26.9966 34.4275 26.9867 34.5579L26.9881 34.5409C26.9881 37.3837 26.9612 39.6671 26.9612 40.3569C26.9612 40.915 27.3323 41.5779 28.4216 41.3655C36.9601 38.4914 43 30.5591 43 21.2146C43 9.4975 33.5011 0 21.7854 0C21.7769 0 21.767 0 21.7585 0H21.7599L21.7627 0.00141655Z" fill="#FAE5D1"/>
</svg>

<svg width="43" height="42" fill="none" xmlns="http://www.w3.org/2000/svg">
  <path d="M21.763.001C10.03.001.52 9.511.52 21.243c0 9.328 6.013 17.253 14.375 20.107l.15.044c1.062.2 1.452-.456 1.452-1.021 0-.505-.017-1.842-.027-3.611-5.908 1.282-7.155-2.85-7.155-2.85a5.659 5.659 0 0 0-2.341-3.094l-.023-.012c-1.924-1.318.149-1.29.149-1.29a4.464 4.464 0 0 1 3.242 2.166l.011.022a4.532 4.532 0 0 0 6.209 1.753l-.023.012a4.524 4.524 0 0 1 1.344-2.84l.002-.002c-4.717-.531-9.676-2.358-9.676-10.496l-.002-.126c0-2.154.832-4.115 2.192-5.578l-.005.005a7.415 7.415 0 0 1-.454-2.579c0-1.1.235-2.147.658-3.09l-.02.047s1.78-.569 5.842 2.178c1.592-.455 3.421-.717 5.31-.717 1.89 0 3.719.262 5.453.75l-.142-.033c4.035-2.747 5.815-2.178 5.815-2.178.403.91.638 1.97.638 3.084 0 .91-.155 1.782-.443 2.592l.017-.054a8.196 8.196 0 0 1 2.179 5.577c0 .044 0 .087-.002.13v-.008c0 8.16-4.965 9.956-9.691 10.48a5.07 5.07 0 0 1 1.432 3.947l.001-.017c0 2.843-.027 5.126-.027 5.816 0 .558.371 1.22 1.46 1.008C36.962 38.491 43 30.56 43 21.215 43 9.498 33.501 0 21.785 0h-.026l.004.001Z" fill="#FAE5D1"/>
</svg>
